modules/decima-ui/src/main/resources/icons/actions/normals.svg

<svg xmlns="http://www.w3.org/2000/svg" width="16" height="16" viewBox="0 0 16 16">
  <title>actions-normals</title>
  <g>
    <path d="M6.8,6H1.5a.47.47,0,0,0-.5.5v8a.47.47,0,0,0,.5.5h8a.47.47,0,0,0,.5-.5v-4a.5.5,0,0,0-1,0H9V14H2V7H6.8a.54.54,0,0,0,.5-.5A.54.54,0,0,0,6.8,6Z" fill="#6c707e"/>
    <path d="M9.5,1a.47.47,0,0,0-.5.5H9V6.1A1.5,1.5,0,0,0,8,7.5,1.54,1.54,0,0,0,9.5,9a1.28,1.28,0,0,0,1-.4l3.8,2.3a.53.53,0,0,0,.7-.2c.2-.3.1-.5-.2-.7h0L11,7.8V7.2l3.8-2.3a.57.57,0,0,0,.2-.7.57.57,0,0,0-.7-.2h0L10.5,6.3c-.1-.1-.3-.2-.4-.3V1.5A.63.63,0,0,0,9.5,1Z" fill="#3574f0"/>
  </g>
</svg>

<!-- Taken from the Blender project (https://github.com/blender/blender). Licensed under GPL-3.0 -->
<svg xmlns="http://www.w3.org/2000/svg" width="16" height="16" viewBox="0 0 16 16">
	<path fill="#6E6E6E" d="M6.8,6L1.5,6C1.2,6,1,6.2,1,6.5v8C1,14.8,1.2,15,1.5,15h8c0.3,0,0.5-0.2,0.5-0.5l0-4c0-0.3-0.2-0.5-0.5-0.5S9,10.2,9,10.5c0,0,0,0,0,0L9,14H2V7l4.8,0C7,7,7.3,6.8,7.3,6.5C7.3,6.2,7,6,6.8,6C6.8,6,6.8,6,6.8,6z"/>
	<path fill="#389FD6" d="M9.5,1C9.2,1,9,1.2,9,1.5v0v4.6C8.4,6.3,8,6.9,8,7.5C8,8.3,8.7,9,9.5,9c0.4,0,0.7-0.1,1-0.4l3.8,2.3c0.2,0.1,0.5,0.1,0.7-0.2s0.1-0.5-0.2-0.7c0,0,0,0,0,0L11,7.8c0-0.1,0-0.2,0-0.3c0-0.1,0-0.2,0-0.3l3.8-2.3c0.2-0.1,0.3-0.4,0.2-0.7c-0.1-0.2-0.4-0.3-0.7-0.2c0,0,0,0,0,0l-3.8,2.3c-0.1-0.1-0.3-0.2-0.4-0.3V1.5C10,1.2,9.8,1,9.5,1C9.5,1,9.5,1,9.5,1z"/>
</svg>
